X:132
T:Rose in the Heather
Z: id:dc-jig-111
M:6/8
L:1/8
K:D Major
E|FAF EFE|DFA BAF|dcd ede|fdB AFE|!
FAF EFE|DFA BAF|BdB AFE|FDD D2:|!
g|fdB ABd|faa afd|gfg fed|Bee efg|!
fdB ABd|faa afa|baf gfe|fdc d2:|!

